src/assets/icons/widget-checkbox.svg

<svg xmlns="http://www.w3.org/2000/svg" viewBox="0 0 24 24"><path d="m10 17-5-5 1.41-1.42L10 14.17l7.59-7.59L19 8m0-5H5c-1.11 0-2 .89-2 2v14a2 2 0 0 0 2 2h14a2 2 0 0 0 2-2V5a2 2 0 0 0-2-2Z"/></svg>

<svg xmlns="http://www.w3.org/2000/svg" viewBox="0 0 24 24"><path d="M10,17L5,12L6.41,10.58L10,14.17L17.59,6.58L19,8M19,3H5C3.89,3 3,3.89 3,5V19A2,2 0 0,0 5,21H19A2,2 0 0,0 21,19V5C21,3.89 20.1,3 19,3Z" /></svg>
